X: 6745
T: Champion, The
R: jig
M: 6/8
K: Bminor
|:FBc dcB|fBc dcB|cfF f2 e|fgf edc|
FBc dcB|fBc dcB|cff fec|1 dBB BAG:|2 dBB ~B3||
|:AFA BGB|AFA fed|cBA gfe|dfe dcB|
AFA BGB|AFA fed|cBA gfe|1 dfe d2 B:|2 dfe d3||

